assets/logistics-color/LogisticsColor9.svg

<svg xmlns="http://www.w3.org/2000/svg" id="Layer_1" x="0" y="0" version="1.1" viewBox="0 0 256 256" xml:space="preserve"><style>.st0{fill:#48386a}.st1{fill:#fff}.st2{fill:#9feaff}</style><path d="M230.9 141.6c-.5 0-.9-.4-1-.9l-.5-3.3c-.1-.5.3-1.1.8-1.1.6-.1 1.1.3 1.1.8l.5 3.3c.1.5-.3 1.1-.8 1.1 0 .1-.1.1-.1.1z" class="st0"/><path d="M231.5 144.7L247 248.4H9L32.4 91.8h55.8c.9 1.9 1.7 3.9 2.7 5.9.9 1.9 1.8 3.9 2.8 5.9 14.7 30.2 34.3 61.6 34.3 61.6s19.6-31.3 34.3-61.6c.9-2 1.9-3.9 2.8-5.9.9-2 1.8-3.9 2.7-5.9h55.8l6.2 41.6 1.7 11.3z" class="st1"/><path d="M247 249.4H9c-.3 0-.6-.1-.8-.3-.2-.2-.3-.5-.2-.8L31.5 91.7c.1-.5.5-.9 1-.9h55.8c.4 0 .8.2.9.6.9 1.9 1.7 3.9 2.7 5.8.9 1.9 1.8 3.9 2.8 5.8 12.8 26.3 29.5 53.7 33.4 60.1 3.9-6.4 20.6-33.8 33.4-60.1.9-2 1.9-3.9 2.8-5.8.9-2 1.8-3.9 2.7-5.8.2-.4.5-.6.9-.6h55.8c.5 0 .9.4 1 .9l6.2 41.6c.1.5-.3 1.1-.8 1.1-.6.1-1.1-.3-1.1-.8l-6.1-40.7h-54.3c-.8 1.7-1.6 3.5-2.4 5.3-.9 2-1.8 3.9-2.8 5.9-14.5 29.9-34.2 61.3-34.4 61.6-.4.6-1.3.6-1.7 0-.2-.3-19.8-31.7-34.4-61.6-1-2-1.9-3.9-2.8-5.9-.8-1.8-1.6-3.5-2.4-5.3H33.3L10.2 247.4h235.7l-15.4-102.5c-.1-.5.3-1.1.8-1.1.6-.1 1.1.3 1.1.8L248 248.2c0 .3 0 .6-.2.8-.2.2-.5.4-.8.4z" class="st0"/><path d="M240.2 243h-39.7c-.3 0-.5-.2-.5-.5s.2-.5.5-.5h39.1L218.1 98.2h-52.7c-.9 1.9-1.8 3.7-2.7 5.6-14.5 29.9-34.1 61.3-34.3 61.6-.2.3-.7.3-.8 0-.2-.3-19.8-31.7-34.3-61.6-.9-1.9-1.8-3.7-2.7-5.6H37.9l-3.2 21.3c0 .3-.3.5-.6.4-.3 0-.5-.3-.4-.6L37 97.6c0-.2.2-.4.5-.4h53.4c.2 0 .4.1.5.3.9 1.9 1.8 3.9 2.8 5.9 13.3 27.4 30.9 56.1 33.9 60.8 2.9-4.7 20.6-33.4 33.9-60.8.9-2 1.9-3.9 2.8-5.9.1-.2.3-.3.5-.3h53.4c.2 0 .5.2.5.4l21.7 144.8c0 .1 0 .3-.1.4s-.5.2-.6.2zM193.5 243H15.8c-.1 0-.3-.1-.4-.2s-.1-.3-.1-.4l17.6-117.5c0-.3.3-.5.6-.4.3 0 .5.3.4.6L16.4 242h177.1c.3 0 .5.2.5.5s-.2.5-.5.5zM128 90.1c-17.9 0-32.5-14.6-32.5-32.5s14.6-32.5 32.5-32.5c13 0 24.7 7.7 29.9 19.7.1.3 0 .5-.3.7-.3.1-.5 0-.7-.3-5-11.6-16.4-19.1-29-19.1-17.4 0-31.5 14.1-31.5 31.5s14.1 31.5 31.5 31.5 31.5-14.1 31.5-31.5c0-1.8-.2-3.6-.4-5.3 0-.3.1-.5.4-.6.3 0 .5.1.6.4.3 1.8.5 3.6.5 5.5 0 18-14.6 32.5-32.5 32.5z" class="st0"/><path d="M222.2 125.1l-69.4 45v2.4h76.5zM104.6 133.1v21.1l-64.1-12.7 4.9-35.3h44.7c4.2 9.2 10.2 18.5 14.5 26.9zM183 220.2v7.3h-30.7v-19.2H183v7.4zM221.3 208.3h13.3l2.9 19.2h-43v-19.2H216zM86.2 188.6l28.8 5.6-.8 34.8H28.7l7.6-50.2 41.5 8.2z" class="st2"/><path d="M108.7 155.5c-.1 0-.1 0 0 0l-71.8-13.9c-.3-.1-.4-.3-.4-.6l5.6-37.5c0-.2.2-.4.5-.4h51.2c.2 0 .4.1.4.3 4.2 8.7 9.2 18.3 14.9 28.5 0 .1.1.2.1.2V155c0 .1-.1.3-.2.4-.1.1-.2.1-.3.1zm-71.2-14.8l70.7 13.7v-22.1c-5.6-10.1-10.6-19.6-14.8-28.2H43l-5.5 36.6z" class="st0"/><path d="M135.6 237.6h-15.2c-.6 0-1-.4-1-1v-51.3l-86.5-16.7c-.5-.1-.9-.6-.8-1.1l2.2-14.8c0-.3.2-.5.4-.7s.5-.2.8-.2l83.9 16.3v-15.5c0-.5.3-.8.7-1 .4-.1.9.1 1.1.5 3.1 5.3 5.6 9.2 6.8 11.2 1.9-3.1 6.9-11.3 12.9-21.8.1-.1.2-.3.3-.3l59.2-38.4c.2-.1.4-.2.5-.2h12.4c.5 0 .9.4 1 .9l1.3 8.8c.1.4-.1.8-.4 1l-42.4 27.5c-.5.3-1.1.2-1.4-.3s-.2-1.1.3-1.4l41.9-27.2-1.1-7.4h-11.3l-58.8 38.1c-7.7 13.4-13.6 22.9-13.7 23-.2.3-.5.5-.8.5-.3 0-.7-.2-.8-.5 0 0-2.3-3.6-5.8-9.5v13c0 .3-.1.6-.4.8-.2.2-.5.3-.8.2L36 153.8l-1.9 12.9 86.4 16.7c.5.1.8.5.8 1v51.2h13.2v-36.2c0-.6.4-1 1-1h91l-2-13.2h-89c-.6 0-1-.4-1-1v-20.4c0-.3.2-.7.5-.8l30-19.4c.5-.3 1.1-.2 1.4.3.3.5.2 1.1-.3 1.4l-29.5 19.1v18.9h88.9c.5 0 .9.4 1 .9l2.3 15.2c0 .3 0 .6-.2.8-.2.2-.5.3-.8.3h-91.2v36.2c0 .5-.4.9-1 .9z" class="st0"/><path d="M178 228h-30.7c-.3 0-.5-.2-.5-.5v-19.1c0-.3.2-.5.5-.5H178c.3 0 .5.2.5.5v7.4c0 .3-.2.5-.5.5s-.5-.2-.5-.5v-6.9h-29.7V227h29.7v-6.8c0-.3.2-.5.5-.5s.5.2.5.5v7.3c0 .2-.2.5-.5.5zM232 228h-43c-.3 0-.5-.2-.5-.5v-19.2c0-.3.2-.5.5-.5h21.5c.3 0 .5.2.5.5s-.2.5-.5.5h-21V227h42l-2.7-18.2h-12.9c-.3 0-.5-.2-.5-.5s.2-.5.5-.5h13.3c.2 0 .5.2.5.4l2.9 19.2c0 .1 0 .3-.1.4s-.3.2-.5.2zM109.2 229.5H23.7c-.1 0-.3-.1-.4-.2s-.1-.3-.1-.4l7.5-50.2c0-.1.1-.3.2-.3.1-.1.3-.1.4-.1l41.5 8.1c.3.1.4.3.4.6-.1.3-.3.4-.6.4l-41-8-7.4 49.1h84.4l.8-33.9L81 189c-.3-.1-.4-.3-.4-.6.1-.3.3-.4.6-.4l28.8 5.6c.2 0 .4.3.4.5l-.8 34.8c.1.4-.1.6-.4.6z" class="st0"/><path d="M128 7.6c-18.1 0-33.9 9.6-42.7 24l-3.4 6.6c-2.5 6-3.9 12.6-3.9 19.5 0 8.1 4.3 20.5 10.3 34.2.9 1.9 1.7 3.9 2.7 5.9.9 1.9 1.8 3.9 2.8 5.9 8.9 18.3 19.6 37.1 26.7 49 4.6 7.7 7.6 12.6 7.6 12.6s6-9.5 13.8-23.2c6.4-11.1 13.9-24.9 20.5-38.4.9-2 1.9-3.9 2.8-5.9.9-2 1.8-3.9 2.7-5.9 6-13.7 10.3-26.1 10.3-34.2C178 30 155.6 7.6 128 7.6zm0 82c-17.7 0-32-14.3-32-32s14.3-32 32-32 32 14.3 32 32-14.3 32-32 32z" class="st1"/><path d="M128 166.1c-.3 0-.7-.2-.8-.5 0 0-3.1-4.9-7.6-12.6-7.3-12.3-17.9-30.9-26.7-49.1-1-2-1.9-3.9-2.8-5.9-.9-2-1.8-3.9-2.7-5.9C80.5 76.6 77 65 77 57.6c0-6.9 1.3-13.6 4-19.9l3.4-6.7C93.8 15.8 110.1 6.6 128 6.6c28.1 0 51 22.9 51 51 0 7.4-3.5 19-10.4 34.6-.9 1.9-1.8 3.9-2.7 5.9-.9 2-1.8 3.9-2.8 5.9-7.1 14.5-15.1 28.9-20.5 38.5-7.7 13.5-13.7 23.1-13.8 23.2-.1.2-.5.4-.8.4zm0-157.5c-17.2 0-32.9 8.8-41.9 23.5l-3.3 6.5c-2.5 6-3.8 12.4-3.8 19 0 7.1 3.4 18.4 10.2 33.8.9 1.9 1.7 3.9 2.7 5.8.9 1.9 1.8 3.9 2.8 5.8 8.8 18.1 19.3 36.6 26.6 48.9 3.1 5.3 5.6 9.2 6.8 11.2 1.9-3.1 6.9-11.3 12.9-21.8 5.5-9.5 13.5-23.9 20.5-38.3.9-2 1.9-3.9 2.8-5.8.9-2 1.8-3.9 2.7-5.8 6.8-15.3 10.2-26.7 10.2-33.8-.2-27-22.2-49-49.2-49zm0 82c-18.2 0-33-14.8-33-33s14.8-33 33-33 33 14.8 33 33-14.8 33-33 33zm0-64c-17.1 0-31 13.9-31 31s13.9 31 31 31 31-13.9 31-31-13.9-31-31-31z" class="st0"/><path d="M133 7.6c-18.1 0-33.9 9.6-42.7 24l-3.4 6.6c-2.5 6-3.9 12.6-3.9 19.5 0 8.1 4.3 20.5 10.3 34.2.9 1.9 1.7 3.9 2.7 5.9.9 1.9 1.8 3.9 2.8 5.9 8.9 18.3 19.6 37.1 26.7 49 4.6 7.7 7.6 12.6 7.6 12.6s6-9.5 13.8-23.2c6.4-11.1 13.9-24.9 20.5-38.4.9-2 1.9-3.9 2.8-5.9.9-2 1.8-3.9 2.7-5.9 6-13.7 10.3-26.1 10.3-34.2C183 30 160.6 7.6 133 7.6zm-5 82c-17.7 0-32-14.3-32-32s14.3-32 32-32 32 14.3 32 32-14.3 32-32 32z" class="st2"/><path d="M128 90.1c-17.9 0-32.5-14.6-32.5-32.5s14.6-32.5 32.5-32.5c13 0 24.7 7.7 29.9 19.7.1.3 0 .5-.3.7-.3.1-.5 0-.7-.3-5-11.6-16.4-19.1-29-19.1-17.4 0-31.5 14.1-31.5 31.5s14.1 31.5 31.5 31.5 31.5-14.1 31.5-31.5c0-1.8-.2-3.6-.4-5.3 0-.3.1-.5.4-.6.3 0 .5.1.6.4.3 1.8.5 3.6.5 5.5 0 18-14.6 32.5-32.5 32.5z" class="st0"/><path d="M128 85.1c-15.1 0-27.5-12.3-27.5-27.5s12.3-27.5 27.5-27.5c11 0 20.9 6.5 25.2 16.7.1.3 0 .5-.3.7-.3.1-.5 0-.7-.3-4.2-9.7-13.7-16-24.3-16-14.6 0-26.5 11.9-26.5 26.5s11.9 26.5 26.5 26.5 26.5-11.9 26.5-26.5c0-1.5-.1-3-.4-4.5 0-.3.1-.5.4-.6.3 0 .5.1.6.4.3 1.5.4 3.1.4 4.6.1 15.2-12.3 27.5-27.4 27.5z" class="st0"/><path d="M128 166.1c-.3 0-.7-.2-.8-.5 0 0-3.1-4.9-7.6-12.6-7.3-12.3-17.9-30.9-26.7-49.1-1-2-1.9-3.9-2.8-5.9-.9-2-1.8-3.9-2.7-5.9C80.5 76.6 77 65 77 57.6c0-6.9 1.3-13.6 4-19.9l3.4-6.7C93.8 15.8 110.1 6.6 128 6.6c28.1 0 51 22.9 51 51 0 7.4-3.5 19-10.4 34.6-.9 1.9-1.8 3.9-2.7 5.9-.9 2-1.8 3.9-2.8 5.9-7.1 14.5-15.1 28.9-20.5 38.5-7.7 13.5-13.7 23.1-13.8 23.2-.1.2-.5.4-.8.4zm0-157.5c-17.2 0-32.9 8.8-41.9 23.5l-3.3 6.5c-2.5 6-3.8 12.4-3.8 19 0 7.1 3.4 18.4 10.2 33.8.9 1.9 1.7 3.9 2.7 5.8.9 1.9 1.8 3.9 2.8 5.8 8.8 18.1 19.3 36.6 26.6 48.9 3.1 5.3 5.6 9.2 6.8 11.2 1.9-3.1 6.9-11.3 12.9-21.8 5.5-9.5 13.5-23.9 20.5-38.3.9-2 1.9-3.9 2.8-5.8.9-2 1.8-3.9 2.7-5.8 6.8-15.3 10.2-26.7 10.2-33.8-.2-27-22.2-49-49.2-49zm0 82c-18.2 0-33-14.8-33-33s14.8-33 33-33 33 14.8 33 33-14.8 33-33 33zm0-64c-17.1 0-31 13.9-31 31s13.9 31 31 31 31-13.9 31-31-13.9-31-31-31z" class="st0"/><path d="M233.4 237.6H22.6c-.3 0-.6-.1-.8-.3-.2-.2-.3-.5-.2-.8l19.9-133.1c.1-.5.5-.9 1-.9h51.2c.4 0 .7.2.9.6 4.2 8.7 9.2 18.3 14.9 28.5 8.4 15.1 16 27.6 18.5 31.6.3-.5.7-1.2 1.2-2 2.1-3.5 6.5-10.7 11.7-19.8 5.5-9.5 13.5-23.9 20.5-38.3.2-.3.5-.6.9-.6h51.2c.5 0 .9.4 1 .9l19.9 133.1c0 .3 0 .6-.2.8-.2.2-.5.3-.8.3zm-209.6-2h208.5l-19.6-131.1H163c-7 14.3-14.9 28.5-20.3 37.9-5.2 9.1-9.6 16.3-11.7 19.8-1.3 2.2-2.1 3.4-2.1 3.4-.2.3-.5.5-.8.5-.3 0-.7-.2-.8-.5-.1-.1-9.1-14.6-19.4-33-5.6-10.1-10.5-19.5-14.7-28.1H43.4L23.8 235.6zM128 85.1c-15.1 0-27.5-12.3-27.5-27.5s12.3-27.5 27.5-27.5c11 0 20.9 6.5 25.2 16.7.1.3 0 .5-.3.7-.3.1-.5 0-.7-.3-4.2-9.7-13.7-16-24.3-16-14.6 0-26.5 11.9-26.5 26.5s11.9 26.5 26.5 26.5 26.5-11.9 26.5-26.5c0-1.5-.1-3-.4-4.5 0-.3.1-.5.4-.6.3 0 .5.1.6.4.3 1.5.4 3.1.4 4.6.1 15.2-12.3 27.5-27.4 27.5z" class="st0"/><path d="M128 26.5c-17.2 0-31.2 14-31.2 31.2s14 31.2 31.2 31.2 31.2-14 31.2-31.2c0-17.3-14-31.2-31.2-31.2zm0 58.6c-15.1 0-27.4-12.3-27.4-27.4s12.3-27.4 27.4-27.4 27.4 12.3 27.4 27.4-12.3 27.4-27.4 27.4z" class="st1"/><g><path d="M223.8 173h-76.4c-.3 0-.5-.2-.5-.5v-2.4c0-.2.1-.3.2-.4l69.3-45c.2-.2.5-.1.7.1.1.2.1.5-.1.7l-69.1 44.8v1.6h75.9c.3 0 .5.2.5.5s-.2.6-.5.6z" class="st0"/></g></svg>

<svg xmlns="http://www.w3.org/2000/svg" id="Layer_1" x="0" y="0" enable-background="new 0 0 256 256" version="1.1" viewBox="0 0 256 256" xml:space="preserve"><style>.st0{fill:#48386A;}
	.st1{fill:#FFFFFF;}
	.st2{fill:#9FEAFF;}</style><path d="M230.9 141.6c-.5 0-.9-.4-1-.9l-.5-3.3c-.1-.5.3-1.1.8-1.1.6-.1 1.1.3 1.1.8l.5 3.3c.1.5-.3 1.1-.8 1.1 0 .1-.1.1-.1.1z" class="st0"/><path d="M231.5 144.7 247 248.4H9L32.4 91.8h55.8c.9 1.9 1.7 3.9 2.7 5.9.9 1.9 1.8 3.9 2.8 5.9 14.7 30.2 34.3 61.6 34.3 61.6s19.6-31.3 34.3-61.6c.9-2 1.9-3.9 2.8-5.9.9-2 1.8-3.9 2.7-5.9h55.8l6.2 41.6 1.7 11.3z" class="st1"/><path d="M247 249.4H9c-.3 0-.6-.1-.8-.3-.2-.2-.3-.5-.2-.8L31.5 91.7c.1-.5.5-.9 1-.9h55.8c.4 0 .8.2.9.6.9 1.9 1.7 3.9 2.7 5.8.9 1.9 1.8 3.9 2.8 5.8 12.8 26.3 29.5 53.7 33.4 60.1 3.9-6.4 20.6-33.8 33.4-60.1.9-2 1.9-3.9 2.8-5.8.9-2 1.8-3.9 2.7-5.8.2-.4.5-.6.9-.6h55.8c.5 0 .9.4 1 .9l6.2 41.6c.1.5-.3 1.1-.8 1.1-.6.1-1.1-.3-1.1-.8l-6.1-40.7h-54.3c-.8 1.7-1.6 3.5-2.4 5.3-.9 2-1.8 3.9-2.8 5.9-14.5 29.9-34.2 61.3-34.4 61.6-.4.6-1.3.6-1.7 0-.2-.3-19.8-31.7-34.4-61.6-1-2-1.9-3.9-2.8-5.9-.8-1.8-1.6-3.5-2.4-5.3H33.3L10.2 247.4h235.7l-15.4-102.5c-.1-.5.3-1.1.8-1.1.6-.1 1.1.3 1.1.8L248 248.2c0 .3 0 .6-.2.8-.2.2-.5.4-.8.4z" class="st0"/><path d="M240.2 243h-39.7c-.3 0-.5-.2-.5-.5s.2-.5.5-.5h39.1L218.1 98.2h-52.7c-.9 1.9-1.8 3.7-2.7 5.6-14.5 29.9-34.1 61.3-34.3 61.6-.2.3-.7.3-.8 0-.2-.3-19.8-31.7-34.3-61.6-.9-1.9-1.8-3.7-2.7-5.6H37.9l-3.2 21.3c0 .3-.3.5-.6.4-.3 0-.5-.3-.4-.6L37 97.6c0-.2.2-.4.5-.4h53.4c.2 0 .4.1.5.3.9 1.9 1.8 3.9 2.8 5.9 13.3 27.4 30.9 56.1 33.9 60.8 2.9-4.7 20.6-33.4 33.9-60.8.9-2 1.9-3.9 2.8-5.9.1-.2.3-.3.5-.3h53.4c.2 0 .5.2.5.4l21.7 144.8c0 .1 0 .3-.1.4s-.5.2-.6.2zM193.5 243H15.8c-.1 0-.3-.1-.4-.2s-.1-.3-.1-.4l17.6-117.5c0-.3.3-.5.6-.4.3 0 .5.3.4.6L16.4 242h177.1c.3 0 .5.2.5.5s-.2.5-.5.5zM128 90.1c-17.9 0-32.5-14.6-32.5-32.5s14.6-32.5 32.5-32.5c13 0 24.7 7.7 29.9 19.7.1.3 0 .5-.3.7-.3.1-.5 0-.7-.3-5-11.6-16.4-19.1-29-19.1-17.4 0-31.5 14.1-31.5 31.5s14.1 31.5 31.5 31.5 31.5-14.1 31.5-31.5c0-1.8-.2-3.6-.4-5.3 0-.3.1-.5.4-.6.3 0 .5.1.6.4.3 1.8.5 3.6.5 5.5 0 18-14.6 32.5-32.5 32.5z" class="st0"/><path d="M222.2 125.1 152.8 170.1 152.8 172.5 229.3 172.5z" class="st2"/><path d="M104.6 133.1v21.1l-64.1-12.7 4.9-35.3h44.7c4.2 9.2 10.2 18.5 14.5 26.9z" class="st2"/><path d="M183 220.2 183 227.5 152.3 227.5 152.3 208.3 183 208.3 183 215.7z" class="st2"/><path d="M221.3 208.3 234.6 208.3 237.5 227.5 194.5 227.5 194.5 208.3 216 208.3z" class="st2"/><path d="M86.2 188.6 115 194.2 114.2 229 28.7 229 36.3 178.8 77.8 187z" class="st2"/><path d="M108.7 155.5c-.1 0-.1 0 0 0l-71.8-13.9c-.3-.1-.4-.3-.4-.6l5.6-37.5c0-.2.2-.4.5-.4h51.2c.2 0 .4.1.4.3 4.2 8.7 9.2 18.3 14.9 28.5 0 .1.1.2.1.2V155c0 .1-.1.3-.2.4-.1.1-.2.1-.3.1zm-71.2-14.8 70.7 13.7v-22.1c-5.6-10.1-10.6-19.6-14.8-28.2H43l-5.5 36.6z" class="st0"/><path d="M135.6 237.6h-15.2c-.6 0-1-.4-1-1v-51.3l-86.5-16.7c-.5-.1-.9-.6-.8-1.1l2.2-14.8c0-.3.2-.5.4-.7s.5-.2.8-.2l83.9 16.3v-15.5c0-.5.3-.8.7-1 .4-.1.9.1 1.1.5 3.1 5.3 5.6 9.2 6.8 11.2 1.9-3.1 6.9-11.3 12.9-21.8.1-.1.2-.3.3-.3l59.2-38.4c.2-.1.4-.2.5-.2h12.4c.5 0 .9.4 1 .9l1.3 8.8c.1.4-.1.8-.4 1l-42.4 27.5c-.5.3-1.1.2-1.4-.3s-.2-1.1.3-1.4l41.9-27.2-1.1-7.4h-11.3l-58.8 38.1c-7.7 13.4-13.6 22.9-13.7 23-.2.3-.5.5-.8.5-.3 0-.7-.2-.8-.5 0 0-2.3-3.6-5.8-9.5v13c0 .3-.1.6-.4.8-.2.2-.5.3-.8.2L36 153.8l-1.9 12.9 86.4 16.7c.5.1.8.5.8 1v51.2h13.2v-36.2c0-.6.4-1 1-1h91l-2-13.2h-89c-.6 0-1-.4-1-1v-20.4c0-.3.2-.7.5-.8l30-19.4c.5-.3 1.1-.2 1.4.3.3.5.2 1.1-.3 1.4l-29.5 19.1v18.9h88.9c.5 0 .9.4 1 .9l2.3 15.2c0 .3 0 .6-.2.8-.2.2-.5.3-.8.3h-91.2v36.2c0 .5-.4.9-1 .9z" class="st0"/><path d="M178 228h-30.7c-.3 0-.5-.2-.5-.5v-19.1c0-.3.2-.5.5-.5H178c.3 0 .5.2.5.5v7.4c0 .3-.2.5-.5.5s-.5-.2-.5-.5v-6.9h-29.7V227h29.7v-6.8c0-.3.2-.5.5-.5s.5.2.5.5v7.3c0 .2-.2.5-.5.5zM232 228h-43c-.3 0-.5-.2-.5-.5v-19.2c0-.3.2-.5.5-.5h21.5c.3 0 .5.2.5.5s-.2.5-.5.5h-21V227h42l-2.7-18.2h-12.9c-.3 0-.5-.2-.5-.5s.2-.5.5-.5h13.3c.2 0 .5.2.5.4l2.9 19.2c0 .1 0 .3-.1.4s-.3.2-.5.2zM109.2 229.5H23.7c-.1 0-.3-.1-.4-.2s-.1-.3-.1-.4l7.5-50.2c0-.1.1-.3.2-.3.1-.1.3-.1.4-.1l41.5 8.1c.3.1.4.3.4.6-.1.3-.3.4-.6.4l-41-8-7.4 49.1h84.4l.8-33.9L81 189c-.3-.1-.4-.3-.4-.6.1-.3.3-.4.6-.4l28.8 5.6c.2 0 .4.3.4.5l-.8 34.8c.1.4-.1.6-.4.6z" class="st0"/><path d="M128 7.6c-18.1 0-33.9 9.6-42.7 24l-3.4 6.6c-2.5 6-3.9 12.6-3.9 19.5 0 8.1 4.3 20.5 10.3 34.2.9 1.9 1.7 3.9 2.7 5.9.9 1.9 1.8 3.9 2.8 5.9 8.9 18.3 19.6 37.1 26.7 49 4.6 7.7 7.6 12.6 7.6 12.6s6-9.5 13.8-23.2c6.4-11.1 13.9-24.9 20.5-38.4.9-2 1.9-3.9 2.8-5.9.9-2 1.8-3.9 2.7-5.9 6-13.7 10.3-26.1 10.3-34.2C178 30 155.6 7.6 128 7.6zm0 82c-17.7 0-32-14.3-32-32s14.3-32 32-32 32 14.3 32 32-14.3 32-32 32z" class="st1"/><path d="M128 166.1c-.3 0-.7-.2-.8-.5 0 0-3.1-4.9-7.6-12.6-7.3-12.3-17.9-30.9-26.7-49.1-1-2-1.9-3.9-2.8-5.9-.9-2-1.8-3.9-2.7-5.9C80.5 76.6 77 65 77 57.6c0-6.9 1.3-13.6 4-19.9l3.4-6.7C93.8 15.8 110.1 6.6 128 6.6c28.1 0 51 22.9 51 51 0 7.4-3.5 19-10.4 34.6-.9 1.9-1.8 3.9-2.7 5.9-.9 2-1.8 3.9-2.8 5.9-7.1 14.5-15.1 28.9-20.5 38.5-7.7 13.5-13.7 23.1-13.8 23.2-.1.2-.5.4-.8.4zm0-157.5c-17.2 0-32.9 8.8-41.9 23.5l-3.3 6.5c-2.5 6-3.8 12.4-3.8 19 0 7.1 3.4 18.4 10.2 33.8.9 1.9 1.7 3.9 2.7 5.8.9 1.9 1.8 3.9 2.8 5.8 8.8 18.1 19.3 36.6 26.6 48.9 3.1 5.3 5.6 9.2 6.8 11.2 1.9-3.1 6.9-11.3 12.9-21.8 5.5-9.5 13.5-23.9 20.5-38.3.9-2 1.9-3.9 2.8-5.8.9-2 1.8-3.9 2.7-5.8 6.8-15.3 10.2-26.7 10.2-33.8-.2-27-22.2-49-49.2-49zm0 82c-18.2 0-33-14.8-33-33s14.8-33 33-33 33 14.8 33 33-14.8 33-33 33zm0-64c-17.1 0-31 13.9-31 31s13.9 31 31 31 31-13.9 31-31-13.9-31-31-31z" class="st0"/><path d="M133 7.6c-18.1 0-33.9 9.6-42.7 24l-3.4 6.6c-2.5 6-3.9 12.6-3.9 19.5 0 8.1 4.3 20.5 10.3 34.2.9 1.9 1.7 3.9 2.7 5.9.9 1.9 1.8 3.9 2.8 5.9 8.9 18.3 19.6 37.1 26.7 49 4.6 7.7 7.6 12.6 7.6 12.6s6-9.5 13.8-23.2c6.4-11.1 13.9-24.9 20.5-38.4.9-2 1.9-3.9 2.8-5.9.9-2 1.8-3.9 2.7-5.9 6-13.7 10.3-26.1 10.3-34.2C183 30 160.6 7.6 133 7.6zm-5 82c-17.7 0-32-14.3-32-32s14.3-32 32-32 32 14.3 32 32-14.3 32-32 32z" class="st2"/><path d="M128 90.1c-17.9 0-32.5-14.6-32.5-32.5s14.6-32.5 32.5-32.5c13 0 24.7 7.7 29.9 19.7.1.3 0 .5-.3.7-.3.1-.5 0-.7-.3-5-11.6-16.4-19.1-29-19.1-17.4 0-31.5 14.1-31.5 31.5s14.1 31.5 31.5 31.5 31.5-14.1 31.5-31.5c0-1.8-.2-3.6-.4-5.3 0-.3.1-.5.4-.6.3 0 .5.1.6.4.3 1.8.5 3.6.5 5.5 0 18-14.6 32.5-32.5 32.5z" class="st0"/><path d="M128 85.1c-15.1 0-27.5-12.3-27.5-27.5s12.3-27.5 27.5-27.5c11 0 20.9 6.5 25.2 16.7.1.3 0 .5-.3.7-.3.1-.5 0-.7-.3-4.2-9.7-13.7-16-24.3-16-14.6 0-26.5 11.9-26.5 26.5s11.9 26.5 26.5 26.5 26.5-11.9 26.5-26.5c0-1.5-.1-3-.4-4.5 0-.3.1-.5.4-.6.3 0 .5.1.6.4.3 1.5.4 3.1.4 4.6.1 15.2-12.3 27.5-27.4 27.5z" class="st0"/><path d="M128 166.1c-.3 0-.7-.2-.8-.5 0 0-3.1-4.9-7.6-12.6-7.3-12.3-17.9-30.9-26.7-49.1-1-2-1.9-3.9-2.8-5.9-.9-2-1.8-3.9-2.7-5.9C80.5 76.6 77 65 77 57.6c0-6.9 1.3-13.6 4-19.9l3.4-6.7C93.8 15.8 110.1 6.6 128 6.6c28.1 0 51 22.9 51 51 0 7.4-3.5 19-10.4 34.6-.9 1.9-1.8 3.9-2.7 5.9-.9 2-1.8 3.9-2.8 5.9-7.1 14.5-15.1 28.9-20.5 38.5-7.7 13.5-13.7 23.1-13.8 23.2-.1.2-.5.4-.8.4zm0-157.5c-17.2 0-32.9 8.8-41.9 23.5l-3.3 6.5c-2.5 6-3.8 12.4-3.8 19 0 7.1 3.4 18.4 10.2 33.8.9 1.9 1.7 3.9 2.7 5.8.9 1.9 1.8 3.9 2.8 5.8 8.8 18.1 19.3 36.6 26.6 48.9 3.1 5.3 5.6 9.2 6.8 11.2 1.9-3.1 6.9-11.3 12.9-21.8 5.5-9.5 13.5-23.9 20.5-38.3.9-2 1.9-3.9 2.8-5.8.9-2 1.8-3.9 2.7-5.8 6.8-15.3 10.2-26.7 10.2-33.8-.2-27-22.2-49-49.2-49zm0 82c-18.2 0-33-14.8-33-33s14.8-33 33-33 33 14.8 33 33-14.8 33-33 33zm0-64c-17.1 0-31 13.9-31 31s13.9 31 31 31 31-13.9 31-31-13.9-31-31-31z" class="st0"/><path d="M233.4 237.6H22.6c-.3 0-.6-.1-.8-.3-.2-.2-.3-.5-.2-.8l19.9-133.1c.1-.5.5-.9 1-.9h51.2c.4 0 .7.2.9.6 4.2 8.7 9.2 18.3 14.9 28.5 8.4 15.1 16 27.6 18.5 31.6.3-.5.7-1.2 1.2-2 2.1-3.5 6.5-10.7 11.7-19.8 5.5-9.5 13.5-23.9 20.5-38.3.2-.3.5-.6.9-.6h51.2c.5 0 .9.4 1 .9l19.9 133.1c0 .3 0 .6-.2.8-.2.2-.5.3-.8.3zm-209.6-2h208.5l-19.6-131.1H163c-7 14.3-14.9 28.5-20.3 37.9-5.2 9.1-9.6 16.3-11.7 19.8-1.3 2.2-2.1 3.4-2.1 3.4-.2.3-.5.5-.8.5-.3 0-.7-.2-.8-.5-.1-.1-9.1-14.6-19.4-33-5.6-10.1-10.5-19.5-14.7-28.1H43.4L23.8 235.6zM128 85.1c-15.1 0-27.5-12.3-27.5-27.5s12.3-27.5 27.5-27.5c11 0 20.9 6.5 25.2 16.7.1.3 0 .5-.3.7-.3.1-.5 0-.7-.3-4.2-9.7-13.7-16-24.3-16-14.6 0-26.5 11.9-26.5 26.5s11.9 26.5 26.5 26.5 26.5-11.9 26.5-26.5c0-1.5-.1-3-.4-4.5 0-.3.1-.5.4-.6.3 0 .5.1.6.4.3 1.5.4 3.1.4 4.6.1 15.2-12.3 27.5-27.4 27.5z" class="st0"/><path d="M128 26.5c-17.2 0-31.2 14-31.2 31.2s14 31.2 31.2 31.2 31.2-14 31.2-31.2c0-17.3-14-31.2-31.2-31.2zm0 58.6c-15.1 0-27.4-12.3-27.4-27.4s12.3-27.4 27.4-27.4 27.4 12.3 27.4 27.4-12.3 27.4-27.4 27.4z" class="st1"/><g><path d="M223.8 173h-76.4c-.3 0-.5-.2-.5-.5v-2.4c0-.2.1-.3.2-.4l69.3-45c.2-.2.5-.1.7.1.1.2.1.5-.1.7l-69.1 44.8v1.6h75.9c.3 0 .5.2.5.5s-.2.6-.5.6z" class="st0"/></g></svg>
